src/assets/img/action_and_leasing-list/icon2.svg

<svg width="60" height="60" viewBox="0 0 60 60" fill="none" xmlns="http://www.w3.org/2000/svg">
<path d="M10.3125 30.8016V32.8125H12.1875V30.8016C13.2703 30.4584 14.0625 29.4563 14.0625 28.2619C14.0625 27.2428 13.4963 26.325 12.5831 25.8684L10.755 24.9553C10.4822 24.8184 10.3125 24.5438 10.3125 24.2381C10.3125 23.7966 10.6716 23.4375 11.1131 23.4375H11.3869C11.8284 23.4375 12.1875 23.7966 12.1875 24.2381V24.375H14.0625V24.2381C14.0625 23.0438 13.2703 22.0416 12.1875 21.6984V19.6875H10.3125V21.6984C9.22969 22.0416 8.4375 23.0438 8.4375 24.2381C8.4375 25.2572 9.00375 26.175 9.91688 26.6316L11.745 27.5447C12.0178 27.6816 12.1875 27.9563 12.1875 28.2619C12.1875 28.7034 11.8284 29.0625 11.3869 29.0625H11.1131C10.6716 29.0625 10.3125 28.7034 10.3125 28.2619V27.1875H8.4375V28.2619C8.4375 29.4563 9.22969 30.4584 10.3125 30.8016Z" fill="#333333"/>
<path d="M11.25 36.5625C16.9359 36.5625 21.5625 31.9359 21.5625 26.25C21.5625 25.9931 21.5428 25.7409 21.5241 25.4878L24.7041 24.9572C25.2891 26.2688 26.5997 27.1875 28.125 27.1875C30.1931 27.1875 31.875 25.5056 31.875 23.4375C31.875 23.0963 31.8141 22.7719 31.7288 22.4578L38.5678 18.5494C39.2494 19.2497 40.1981 19.6875 41.25 19.6875C43.3181 19.6875 45 18.0056 45 15.9375C45 15.2437 44.7984 14.6025 44.4684 14.0447L54.375 4.13812V9.375H56.25V0.9375H47.8125V2.8125H53.0494L43.1428 12.7191C42.585 12.3891 41.9437 12.1875 41.25 12.1875C39.1819 12.1875 37.5 13.8694 37.5 15.9375C37.5 16.2788 37.5609 16.6031 37.6462 16.9172L30.8072 20.8256C30.1256 20.1253 29.1769 19.6875 28.125 19.6875C26.1703 19.6875 24.5794 21.1959 24.4087 23.1066L21.2147 23.6391C20.0541 19.215 16.0331 15.9375 11.25 15.9375C5.56406 15.9375 0.9375 20.5641 0.9375 26.25C0.9375 31.9359 5.56406 36.5625 11.25 36.5625ZM41.25 14.0625C42.2841 14.0625 43.125 14.9034 43.125 15.9375C43.125 16.9716 42.2841 17.8125 41.25 17.8125C40.2159 17.8125 39.375 16.9716 39.375 15.9375C39.375 14.9034 40.2159 14.0625 41.25 14.0625ZM28.125 21.5625C29.1591 21.5625 30 22.4034 30 23.4375C30 24.4716 29.1591 25.3125 28.125 25.3125C27.0909 25.3125 26.25 24.4716 26.25 23.4375C26.25 22.4034 27.0909 21.5625 28.125 21.5625ZM11.25 17.8125C15.9019 17.8125 19.6875 21.5981 19.6875 26.25C19.6875 30.9019 15.9019 34.6875 11.25 34.6875C6.59812 34.6875 2.8125 30.9019 2.8125 26.25C2.8125 21.5981 6.59812 17.8125 11.25 17.8125Z" fill="#333333"/>
<path d="M2.8125 59.0625H12.1875V38.4375H2.8125V59.0625ZM4.6875 40.3125H10.3125V57.1875H4.6875V40.3125Z" fill="#333333"/>
<path d="M14.0625 59.0625H23.4375V40.3125H14.0625V59.0625ZM15.9375 42.1875H21.5625V57.1875H15.9375V42.1875Z" fill="#333333"/>
<path d="M25.3125 59.0625H34.6875V29.0625H25.3125V59.0625ZM27.1875 30.9375H32.8125V57.1875H27.1875V30.9375Z" fill="#333333"/>
<path d="M50.625 44.1984V42.1875H48.75V44.1984C47.6672 44.5416 46.875 45.5438 46.875 46.7381C46.875 47.7572 47.4412 48.6741 48.3544 49.1316L50.1825 50.0456C50.4553 50.1816 50.625 50.4563 50.625 50.7619C50.625 51.2025 50.2659 51.5625 49.8244 51.5625H49.5506C49.1091 51.5625 48.75 51.2025 48.75 50.7619V49.6875H46.875V50.7619C46.875 51.9572 47.6672 52.9594 48.75 53.3016V55.3125H50.625V53.3016C51.7078 52.9584 52.5 51.9563 52.5 50.7619C52.5 49.7428 51.9338 48.8259 51.0206 48.3684L49.1925 47.4544C48.9197 47.3184 48.75 47.0438 48.75 46.7381C48.75 46.2975 49.1091 45.9375 49.5506 45.9375H49.8244C50.2659 45.9375 50.625 46.2975 50.625 46.7381V46.875H52.5V46.7381C52.5 45.5438 51.7078 44.5416 50.625 44.1984Z" fill="#333333"/>
<path d="M57.6375 44.3259L54.4538 39.2316L56.1197 33.4012C56.2059 33.0966 56.25 32.7825 56.25 32.4675C56.25 30.5897 54.7228 29.0625 52.8459 29.0625H50.28C48.9553 29.0625 47.8181 29.8303 47.2556 30.9375H45.9375V21.5625H36.5625V59.0625H49.6875C54.8569 59.0625 59.0625 54.8569 59.0625 49.6875V49.2947C59.0625 47.535 58.5694 45.8175 57.6375 44.3259ZM48.75 32.4675C48.75 31.6237 49.4363 30.9375 50.2791 30.9375H52.845C53.6887 30.9375 54.375 31.6237 54.375 32.4675C54.375 32.6091 54.3553 32.7506 54.3159 32.8875L52.7306 38.4375H46.3256L43.6266 35.7384C43.3078 35.4187 43.125 34.9781 43.125 34.5262C43.125 33.5812 43.8937 32.8125 44.8397 32.8125H46.875V34.6875H48.75V32.4675ZM38.4375 57.1875V23.4375H44.0625V31.0275C42.4566 31.3838 41.25 32.8153 41.25 34.5262C41.25 35.4853 41.6231 36.3862 42.3019 37.0641L44.7478 39.51L41.7384 44.3259C40.8056 45.8175 40.3125 47.535 40.3125 49.2947V49.6875C40.3125 52.7559 41.8013 55.4766 44.0869 57.1875H38.4375ZM57.1875 49.6875C57.1875 53.8228 53.8228 57.1875 49.6875 57.1875C45.5522 57.1875 42.1875 53.8228 42.1875 49.6875V49.2947C42.1875 47.8875 42.5812 46.5131 43.3275 45.3206L46.4569 40.3125H52.9181L56.0475 45.3206C56.7938 46.5131 57.1875 47.8875 57.1875 49.2947V49.6875Z" fill="#333333"/>
</svg>

<svg width="60" height="60" fill="none" xmlns="http://www.w3.org/2000/svg"><path d="M10.313 30.802v2.01h1.874v-2.01a2.67 2.67 0 001.876-2.54c0-1.02-.567-1.937-1.48-2.394l-1.828-.913a.801.801 0 01.358-1.518h.274c.441 0 .8.36.8.801v.137h1.876v-.137a2.671 2.671 0 00-1.876-2.54v-2.01h-1.874v2.01a2.671 2.671 0 00-1.876 2.54c0 1.02.567 1.937 1.48 2.394l1.828.913a.801.801 0 01-.358 1.518h-.274c-.441 0-.8-.36-.8-.801v-1.075H8.437v1.075a2.67 2.67 0 001.876 2.54z" fill="#333"/><path d="M11.25 36.563c5.686 0 10.313-4.627 10.313-10.313 0-.257-.02-.51-.039-.762l3.18-.53a3.75 3.75 0 003.421 2.23 3.754 3.754 0 003.75-3.75c0-.342-.06-.666-.146-.98l6.839-3.909c.681.7 1.63 1.139 2.682 1.139a3.754 3.754 0 003.75-3.75 3.7 3.7 0 00-.532-1.893l9.907-9.907v5.237h1.875V.937h-8.438v1.875h5.237l-9.906 9.907a3.7 3.7 0 00-1.893-.531 3.754 3.754 0 00-3.75 3.75c0 .34.06.665.146.98l-6.839 3.908a3.732 3.732 0 00-2.682-1.139c-1.955 0-3.546 1.509-3.716 3.42l-3.194.532c-1.16-4.424-5.182-7.701-9.965-7.701C5.564 15.938.937 20.564.937 26.25c0 5.686 4.627 10.313 10.313 10.313zm30-22.5a1.876 1.876 0 010 3.75 1.877 1.877 0 01-1.875-1.875c0-1.035.84-1.876 1.875-1.876zm-13.125 7.5c1.034 0 1.875.84 1.875 1.875 0 1.034-.84 1.875-1.875 1.875a1.877 1.877 0 01-1.875-1.875c0-1.035.84-1.875 1.875-1.875zm-16.875-3.75c4.652 0 8.438 3.785 8.438 8.437 0 4.652-3.786 8.438-8.438 8.438-4.652 0-8.438-3.786-8.438-8.438 0-4.652 3.786-8.438 8.438-8.438zm-8.437 41.25h9.374V38.436H2.813v20.626zm1.874-18.75h5.625v16.874H4.689V40.314zm9.376 18.75h9.374v-18.75h-9.375v18.75zm1.874-16.876h5.626v15h-5.625v-15z" fill="#333"/><path d="M25.313 59.063h9.375v-30h-9.376v30zm1.875-28.126h5.625v26.25h-5.626v-26.25zm23.437 13.261v-2.01H48.75v2.01a2.671 2.671 0 00-1.875 2.54c0 1.02.566 1.936 1.48 2.394l1.828.914a.802.802 0 01-.358 1.517h-.274a.802.802 0 01-.801-.801v-1.075h-1.875v1.075a2.67 2.67 0 001.875 2.54v2.01h1.875v-2.01a2.67 2.67 0 001.875-2.54c0-1.02-.566-1.936-1.48-2.394l-1.828-.914a.802.802 0 01.358-1.517h.274c.442 0 .801.36.801.801v.137H52.5v-.137a2.671 2.671 0 00-1.875-2.54z" fill="#333"/><path d="M57.638 44.326l-3.184-5.094 1.666-5.83a3.408 3.408 0 00-3.274-4.339H50.28a3.395 3.395 0 00-3.024 1.875h-1.319v-9.375h-9.374v37.5h13.124c5.17 0 9.376-4.206 9.376-9.376v-.392c0-1.76-.494-3.477-1.425-4.97zM48.75 32.468c0-.844.686-1.53 1.53-1.53h2.565a1.532 1.532 0 011.47 1.95l-1.584 5.55h-6.405l-2.7-2.7a1.716 1.716 0 011.213-2.926h2.036v1.876h1.875v-2.22zm-10.313 24.72v-33.75h5.626v7.59a3.592 3.592 0 00-2.813 3.498c0 .96.373 1.86 1.052 2.538l2.446 2.446-3.01 4.816a9.36 9.36 0 00-1.425 4.969v.392c0 3.069 1.488 5.79 3.774 7.5h-5.65zm18.75-7.5c0 4.135-3.364 7.5-7.5 7.5-4.135 0-7.5-3.365-7.5-7.5v-.393c0-1.407.394-2.782 1.14-3.974l3.13-5.008h6.461l3.13 5.008a7.483 7.483 0 011.14 3.974v.392z" fill="#333"/></svg>
